images/social-media/dribbble.svg

<?xml version="1.0" encoding="UTF-8" standalone="no"?>
<svg width="43px" height="43px" viewBox="0 0 43 43" version="1.1" xmlns="http://www.w3.org/2000/svg" xmlns:xlink="http://www.w3.org/1999/xlink">
    <!-- Generator: Sketch 3.8.3 (29802) - http://www.bohemiancoding.com/sketch -->
    <title>Page 1</title>
    <desc>Created with Sketch.</desc>
    <defs></defs>
    <g id="Page-1" stroke="none" stroke-width="1" fill="none" fill-rule="evenodd">
        <g id="Home" transform="translate(-768.000000, -2602.000000)" fill="#3D96FF">
            <g id="Contact" transform="translate(319.000000, 2480.000000)">
                <g id="Networks" transform="translate(0.000000, 122.000000)">
                    <g id="Page-1" transform="translate(449.000000, 0.000000)">
                        <path d="M28.1858457,23.6142446 C30.5975848,30.2404511 31.5744326,35.6304076 31.7595196,36.7287772 C35.8823783,33.9445272 38.8115196,29.5318859 39.6275848,24.4125489 C39.2625522,24.2947663 34.1221826,22.664038 28.1858457,23.6142446 L28.1858457,23.6142446 Z M25.449737,17.1034837 C25.8788022,17.979375 26.2887043,18.869288 26.670563,19.7666793 C26.8065739,20.0835707 26.9379109,20.400462 27.0664435,20.7154837 C33.4084761,19.9181141 39.6514217,21.271212 39.8556717,21.3156141 C39.8122043,16.958125 38.2557913,12.9637989 35.6795304,9.8364837 C35.6421391,9.89163587 32.6966391,14.1444293 25.449737,17.1034837 L25.449737,17.1034837 Z M24.6238565,24.504625 C13.8472152,28.2591793 10.2899,35.8126902 10.2179217,35.9673967 C13.3326174,38.3997011 17.2423457,39.8612337 21.499813,39.8612337 C24.0433565,39.8612337 26.4649109,39.3433641 28.6677261,38.4081141 C28.3957043,36.7984185 27.3277152,31.1752337 24.7453783,24.4634946 C24.7051826,24.4779837 24.664987,24.4896685 24.6238565,24.504625 L24.6238565,24.504625 Z M21.499813,43.0002337 C9.62620435,43.0002337 -0.000186956522,33.373375 -0.000186956522,21.5002337 C-0.000186956522,9.62615761 9.62620435,0.000233695652 21.499813,0.000233695652 C33.3748239,0.000233695652 42.999813,9.62615761 42.999813,21.5002337 C42.999813,33.373375 33.3748239,43.0002337 21.499813,43.0002337 L21.499813,43.0002337 Z M33.6267478,7.72013587 C30.3933348,4.87091848 26.1494217,3.1387663 21.499813,3.1387663 C20.0083674,3.1387663 18.5613239,3.3215163 17.1736391,3.65663587 C17.4531391,4.02680978 20.8992152,8.60584239 24.0377478,14.3683098 C30.9607478,11.7728859 33.5781391,7.79538587 33.6267478,7.72013587 L33.6267478,7.72013587 Z M17.1016609,3.67346196 C17.0853022,3.67720109 17.0689435,3.68094022 17.0535196,3.68467935 C17.081563,3.67813587 17.0988565,3.67533152 17.0988565,3.67533152 L17.1016609,3.67346196 Z M10.2151174,35.9744076 L10.2179217,35.9673967 C10.0819109,35.8598967 9.93561739,35.7626793 9.80241087,35.6514402 C10.0459217,35.8468098 10.2151174,35.9744076 10.2151174,35.9744076 L10.2151174,35.9744076 Z M22.77065,21.6404511 C23.0108891,21.5642663 23.2515957,21.4918207 23.4946391,21.4226467 C23.0337913,20.3780272 22.5304109,19.3334076 22.0045957,18.3023424 C12.5502043,21.131462 3.47626957,20.9267446 3.15376957,20.9183315 C3.14862826,21.1113641 3.13928043,21.3043967 3.13928043,21.5002337 C3.13928043,26.2213533 4.92331304,30.5241576 7.84965,33.7767337 C7.8445087,33.7706576 7.83703043,33.7608424 7.83703043,33.7608424 C7.83703043,33.7608424 12.8633565,24.8453533 22.77065,21.6404511 L22.77065,21.6404511 Z M20.4837043,15.4727554 C17.3091826,9.82994022 13.9154543,5.23034239 13.6663348,4.89288587 C8.54559565,7.31257065 4.72420435,12.0294837 3.53188913,17.7143641 C4.01376957,17.7227772 11.6663674,17.8153207 20.4837043,15.4727554 L20.4837043,15.4727554 Z" id="Fill-1"></path>
                    </g>
                </g>
            </g>
        </g>
    </g>
</svg>

<svg width="43" height="43" viewBox="0 0 43 43" xmlns="http://www.w3.org/2000/svg">
  <title>
    Page 1
  </title>
  <path d="M28.2 23.6c2.4 6.6 3.4 12 3.6 13.1 4-2.8 7-7.2 7.8-12.3-.3-.1-5.5-1.7-11.4-.8zm-2.8-6.5a55.2 55.2
  0 0 1 1.7 3.6c6.3-.8 12.6.6 12.8.6 0-4.3-1.6-8.3-4.2-11.5 0 0-3 4.3-10.3 7.3zm-.8 7.4A25 25 0 0 0 10.2 36a18.3
  18.3 0 0 0 18.5 2.4c-.3-1.6-1.4-7.2-4-14v.1zM21.5 43a21.5 21.5 0 1 1 0-43 21.5 21.5 0 0 1 0 43zM33.6 7.7a18.3
  18.3 0 0 0-16.4-4c.3.3 3.7 5 6.8 10.7a20 20 0 0 0 9.6-6.7zm-16.5-4zM10.2 36l-.4-.3.4.3zm12.6-14.4l.7-.2-1.5-3.1a67.3
  67.3 0 0 1-18.8 2.6v.6a18.3 18.3 0 0 0 4.6 12.3s5-9 15-12.2zm-2.3-6.1a111 111 0 0 0-6.8-10.6C8.5 7.3 4.7 12 3.5 17.7c.5
  0 8.2.1 17-2.2z" fill="#000000" fill-rule="evenodd"/>
</svg>
